outputs/icons/device/wifi_sharp.svg

<svg width="1200" height="1200" viewBox="0 0 1200 1200" fill="none" xmlns="http://www.w3.org/2000/svg"><g clip-path="url(#clip0_833_2177)"><path d="M50 427.625L150 527.625C398.5 279.125 801.5 279.125 1050 527.625L1150 427.625C846.5 124.125 354 124.125 50 427.625ZM450 827.625L600 977.625L750 827.625C667.5 744.625 533 744.625 450 827.625ZM250 627.625L350 727.625C488 589.625 712 589.625 850 727.625L950 627.625C757 434.625 443.5 434.625 250 627.625Z" fill="black"/></g><defs><clipPath id="clip0_833_2177"><path width="24" fill="white" d="M0 0H1200V1200H0V0z"/></clipPath></defs></svg>

<svg xmlns="http://www.w3.org/2000/svg" width="1200" height="1200" fill="none"><g clip-path="url(#a)"><path fill="#000" d="m50 427.625 100 100c248.5-248.5 651.5-248.5 900 0l100-100c-303.5-303.5-796-303.5-1100 0m400 400 150 150 150-150c-82.5-83-217-83-300 0m-200-200 100 100c138-138 362-138 500 0l100-100c-193-193-506.5-193-700 0"/></g><defs><clipPath id="a"><path fill="#fff" d="M0 0h1200v1200H0z"/></clipPath></defs></svg>
